X:1
T:Miss Campbell of Saddell [2]
M:C|
L:1/8
R:Reel
S:Glen Collection, vol. 2 (1895)
Z:AK/Fiddler’s Companion
K:Dmin
A|FDdD F(AAc)|ECcG E(GGA)|FDfd e^cdA|BGA^c d/d/d (dA)|
FDdD F(AAc)|ECcG E(GGE)|FDGE AFBG|Ad^ce d/d/d d||
a|bgaf gefd|egcg ecgc|bgaf gefd|^ceAa f(dda)|
bgaf gefd|egcg ecge|dfeg fagb|agfe fdd||

